X:45
T: Walt the Fiddler
C: Brendan Tonra
Z: B.Black
R: reel
M: 4/4
L: 1/8
K: D
BcdB AFDE|FEDB, A,DFA |BcdB AFAB |defd efdA |
BcdB AFDE|FEDB, A,DFA |defd efdB |AFEG FD D2 :|
fdef dfbf|afdf edBd |BAFB AFAB |1 defd efde |
fdef dfbf|afdf edBA |defd efdB |AFEG FD D2 :|
|2 defd edfb|bddd addd|gece dAFA|defd efdB|\
AFEF FD D2 ||
